Dominus_Dark_Funeral/22/apps/shotwell.svg

<svg xmlns="http://www.w3.org/2000/svg" width="24" height="24"><defs><linearGradient id="b"><stop offset="0" stop-color="#060000"/><stop offset="1" stop-color="#070000" stop-opacity="0"/></linearGradient><linearGradient id="a"><stop offset="0"/><stop offset="1" stop-opacity="0"/></linearGradient></defs><path d="M9.08 10.3l5.35-9.26A11.17 11.17 0 0 0 4.9 3.3l4.12 7.12zm13.64-1.67a11.26 11.26 0 0 0-6.73-7.12l-4.12 7.12zM23 9.75H14.6l.32.56 5.35 9.27a11.2 11.2 0 0 0 2.74-9.83zM8.11 12L3.73 4.42a11.2 11.2 0 0 0-2.74 9.83H9.4zm-6.83 3.37a11.26 11.26 0 0 0 6.73 7.12l4.12-7.12zm12.66 0l-4.38 7.6a11.17 11.17 0 0 0 9.54-2.27L15 13.57z" fill="#e6e6e6"/></svg>

<?xml version="1.0" encoding="UTF-8" standalone="no"?>
<svg
   xmlns:dc="http://purl.org/dc/elements/1.1/"
   xmlns:cc="http://creativecommons.org/ns#"
   xmlns:rdf="http://www.w3.org/1999/02/22-rdf-syntax-ns#"
   xmlns:svg="http://www.w3.org/2000/svg"
   xmlns="http://www.w3.org/2000/svg"
   xmlns:sodipodi="http://sodipodi.sourceforge.net/DTD/sodipodi-0.dtd"
   xmlns:inkscape="http://www.inkscape.org/namespaces/inkscape"
   width="24"
   height="24"
   version="1.1"
   id="svg16"
   sodipodi:docname="shotwell.svg"
   inkscape:version="0.92.4 (5da689c313, 2019-01-14)">
  <metadata
     id="metadata20">
    <rdf:RDF>
      <cc:Work
         rdf:about="">
        <dc:format>image/svg+xml</dc:format>
        <dc:type
           rdf:resource="http://purl.org/dc/dcmitype/StillImage" />
        <dc:title></dc:title>
      </cc:Work>
    </rdf:RDF>
  </metadata>
  <sodipodi:namedview
     pagecolor="#ffffff"
     bordercolor="#666666"
     borderopacity="1"
     objecttolerance="10"
     gridtolerance="10"
     guidetolerance="10"
     inkscape:pageopacity="0"
     inkscape:pageshadow="2"
     inkscape:window-width="1138"
     inkscape:window-height="480"
     id="namedview18"
     showgrid="false"
     inkscape:zoom="9.8333333"
     inkscape:cx="1.0677966"
     inkscape:cy="12"
     inkscape:window-x="0"
     inkscape:window-y="25"
     inkscape:window-maximized="0"
     inkscape:current-layer="svg16" />
  <defs
     id="defs12">
    <linearGradient
       id="b">
      <stop
         offset="0"
         stop-color="#060000"
         id="stop2" />
      <stop
         offset="1"
         stop-color="#070000"
         stop-opacity="0"
         id="stop4" />
    </linearGradient>
    <linearGradient
       id="a">
      <stop
         offset="0"
         id="stop7" />
      <stop
         offset="1"
         stop-opacity="0"
         id="stop9" />
    </linearGradient>
  </defs>
  <path
     d="M 9.08,10.3 14.43,1.04 A 11.17,11.17 0 0 0 4.9,3.3 l 4.12,7.12 z M 22.72,8.63 A 11.26,11.26 0 0 0 15.99,1.51 L 11.87,8.63 Z M 23,9.75 h -8.4 l 0.32,0.56 5.35,9.27 A 11.2,11.2 0 0 0 23.01,9.75 Z M 8.11,12 3.73,4.42 A 11.2,11.2 0 0 0 0.99,14.25 H 9.4 Z m -6.83,3.37 a 11.26,11.26 0 0 0 6.73,7.12 l 4.12,-7.12 z m 12.66,0 -4.38,7.6 A 11.17,11.17 0 0 0 19.1,20.7 L 15,13.57 Z"
     id="path14"
     inkscape:connector-curvature="0"
     style="fill:#e6e6e6" />
</svg>
